X: 61
M:2/4
L:1/16
K:G
((3uDEF)"^Segno"|:vG2(BA) G2(BG)|FGAB c2(Bc)|(dg)(gf) d2(eg)|fdcA (BG)(AF)|
(vgfg).e d2(ef)|gfga bgaf|(gfg).e d2(eg)|fdcA (BG)G2|
(gfg).e d2(ef)|gfga bgaf|(gfg).e d2(eg)||1 (fd)cA BGG2:|2 fdcA BGAF"^Segno"|]


